X:1
T:Title
%%score ( 1 2 ) ( 3 4 )
L:1/8
Q:1/4=102
M:4/4
K:Eb
V:1 treble nm="Midi_74"
V:2 treble 
V:3 bass nm="Midi_74"
V:4 bass 
V:1
"^St. Andrew of Crete  (65. 65. D)""^Christian, dost thou see them""^John Mason Neale (altd.)\n(1818-66)" G2 G2 G2 G2 | %1
 G2 G2 z4 | G2 G2 G2 G2 |"^John Bacchus Dykes\n(1823-76)" G8 || c2 c2 B2 B2 | A4 G4 | G2 G2 E2 F2 | %7
 G4 z4 ||"^Unison in\nVerses 1, 2, 3" G2 c2 d3 G | =e4 c4 |"^Harmony" =e2 d2 c2 =A2 | G8 || %12
 G2 G2 c2 c2 | f4 =e4 | =e2 (dc) =B3 B | c8 |] %16
V:2
 E2 C2 E2 (DC) | C2 =B,2 z4 | =B,2 (B,C) D2 (CB,) | (C4 D4) || C2 (CD) E2 G2 | (G2 FE) D4 | %6
w: ~~Christ- ian, dost thou *|see them|on the * ho- ly *|ground, *|||
w: ~~Christ- ian, dost thou *|feel them,|how they * work with\- *|in, *|||
w: ~~Christ- ian, dost thou *|hear them|how they * speak thee *|fair? *|||
w: 'Well I know thy *|trou- ble,|O my * ser- vant *|true; *|||
 E2 D2 C2 C2 | (C2 =B,2) z4 || C2 C2 G3 G | G4 =E4 | G2 G2 G2 (F=E) | D8 || C2 =E2 E2 (FG) | %13
w: * * * a-|round? *|Christ- ian, up and|smite them,|count- ing gain but *|loss;||
w: |sin? *|Christ- ian, ne- ver|trem- ble;|ne- ver be down\- *|cast;||
w: |prayer? *|Christ- ian, an- swer|bold- ly,|'While I breathe I *|pray:'||
w: |too; *|But that toil shall|make thee|some day all mine *|own,||
 =A4 G4 | G2 (F=E) D3 F | =E8 |] %16
w: |of the * ho- ly|Cross.|
w: |of the * Len- ten|fast.|
w: |night shall * end in|day.|
w: |shall be * near my|throne.|
V:3
 C2 E,2 G,2 (F,E,) | F,2 F,2 z4 | G,2 G,2 G,2 G,2 | (E,4 G,4) || A,2 (E,F,) G,2 (B,E) | %5
w: ||||How the * troops of *|
w: ||||Striv- ing, * tempt- ing *|
w: ||||'Al- ways * fast and *|
w: ||||Thou art * ve- ry *|
 (E2 DC) =B,4 | C2 G,2 A,2 F,2 | D,4 z4 || =E,2 G,2 =B,3 D | =E4 G,4 | =E2 =B,2 C2 C2 | F8 || %12
w: Mi\- * * dian|prowl and prowl *||||||
w: lur\- * * ing,|goad- ing in- to||||||
w: vi\- * * gil?|Al- ways watch and||||||
w: wea * * ry,|I was wea- ry||||||
 =E2 (ED) C2 (C=B,) | C4 C4 | C2 =A,2 =B,3 G, | G,8 |] %16
w: Smite them * by the *|me- rit|||
w: Smite them * by the *|vir- tue|||
w: Peace shall * fol- low *|bat- tle,|||
w: And the * end of *|sor- row|||
V:4
 C,2 C,2 C,2 C,2 | D,2 D,2 z4 | G,,2 (D,E,) F,2 (E,D,) | (C,4 !courtesy!_B,,4) || %4
 A,,2 A,,2 E,2 E,2 | F,4 G,4 | C,2 B,,2 A,,2 A,,2 | G,,4 z4 || C,2 =E,2 G,3 =B, | C4 C,4 | %10
 C2 G,2 =A,2 A,2 | =B,8 || C2 (C=B,) =A,2 (A,G,) | F,4 C,4 | =E,2 F,2 G,3 G, | C,8 |] %16

